;***********************************************************************************
;HyperCube CAM post processor for Fusion360: Version 1.0
;Compatible with Marlin 1.1.4+
;By Tech2C
;https://www.thingiverse.com/thing:1752766
;https://www.youtube.com/watch?v=n2jM6v3E7sU&list=PLIaArjwViQRVAERWRrYfe9rtiwvvRGCzw
;***********************************************************************************

M117 Starting...
M107          ;Laser/Fan OFF
G21           ;Metric Values
G17           ;Plane XY
G90           ;Absolute Positioning
G92 X0 Y0 Z0  ;Set XYZ Positions
G0 F2500
G0 Z2 F300    ;Position Z

M400
M117 Trace3
G0 X-91.674 Y18.57 F2500
G0 Z2 F300
G0 Z-1
G1 Y7.896 F2400
G1 X-79.328
G1 Y18.57
G1 X-76
G1 Y-6.948
G1 X-79.328
G1 Y5.015
G1 X-91.674
G1 Y-6.948
G1 X-94.966
G1 Y18.57
G1 X-91.674
G0 Z2 F300
G0 X-70.393 Y7.477 F2500
G0 Z-1 F300
G1 X-70.171 Y7.864 F2400
G1 X-69.933 Y8.236
G1 X-69.679 Y8.593
G1 X-69.41 Y8.935
G1 X-69.124 Y9.26
G1 X-68.823 Y9.569
G1 X-68.507 Y9.86
G1 X-68.176 Y10.134
G1 X-67.83 Y10.389
G1 X-67.47 Y10.624
G1 X-67.095 Y10.84
G1 X-66.706 Y11.036
G1 X-66.304 Y11.211
G1 X-65.887 Y11.365
G1 X-65.457 Y11.496
G1 X-65.014 Y11.605
G1 X-64.558 Y11.691
G1 X-64.089 Y11.752
G1 X-63.607 Y11.79
G1 X-63.112 Y11.803
G1 X-62.564 Y11.788
G1 X-62.041 Y11.743
G1 X-61.543 Y11.67
G1 X-61.069 Y11.57
G1 X-60.619 Y11.445
G1 X-60.192 Y11.295
G1 X-59.787 Y11.123
G1 X-59.405 Y10.928
G1 X-59.044 Y10.714
G1 X-58.705 Y10.48
G1 X-58.386 Y10.229
G1 X-58.087 Y9.961
G1 X-57.808 Y9.678
G1 X-57.548 Y9.382
G1 X-57.306 Y9.073
G1 X-57.083 Y8.752
G1 X-56.688 Y8.083
G1 X-56.359 Y7.385
G1 X-56.092 Y6.669
G1 X-55.882 Y5.944
G1 X-55.727 Y5.222
G1 X-55.621 Y4.513
G1 X-55.56 Y3.827
G1 X-55.541 Y3.174
G1 X-55.556 Y2.647
G1 X-55.593 Y2.121
G1 X-55.651 Y1.597
G1 X-68.544 Y1.607
G1 X-68.529 Y1.193
G1 X-68.497 Y0.793
G1 X-68.45 Y0.409
G1 X-68.388 Y0.04
G1 X-68.311 Y-0.314
G1 X-68.22 Y-0.653
G1 X-67.997 Y-1.287
G1 X-67.721 Y-1.864
G1 X-67.397 Y-2.384
G1 X-67.029 Y-2.85
G1 X-66.618 Y-3.261
G1 X-66.168 Y-3.62
G1 X-65.684 Y-3.926
G1 X-65.168 Y-4.183
G1 X-64.624 Y-4.39
G1 X-64.056 Y-4.549
G1 X-63.465 Y-4.661
G1 X-62.857 Y-4.728
G1 X-62.234 Y-4.75
G1 X-61.585 Y-4.751
G1 X-60.936 Y-4.717
G1 X-60.29 Y-4.649
G1 X-59.648 Y-4.545
G1 X-59.013 Y-4.408
G1 X-58.387 Y-4.236
G1 X-57.77 Y-4.031
G1 X-57.166 Y-3.793
G1 X-56.598 Y-6.18
G1 X-57.245 Y-6.432
G1 X-57.903 Y-6.653
G1 X-58.571 Y-6.843
G1 X-59.247 Y-7.002
G1 X-59.93 Y-7.129
G1 X-60.617 Y-7.225
G1 X-61.309 Y-7.287
G1 X-62.003 Y-7.318
G1 X-62.697 Y-7.316
G1 X-63.219 Y-7.305
G1 X-63.728 Y-7.273
G1 X-64.223 Y-7.219
G1 X-64.704 Y-7.145
G1 X-65.171 Y-7.051
G1 X-65.623 Y-6.937
G1 X-66.061 Y-6.803
G1 X-66.485 Y-6.649
G1 X-66.893 Y-6.477
G1 X-67.286 Y-6.286
G1 X-67.664 Y-6.077
G1 X-68.026 Y-5.85
G1 X-68.373 Y-5.605
G1 X-68.704 Y-5.343
G1 X-69.018 Y-5.064
G1 X-69.316 Y-4.769
G1 X-69.598 Y-4.457
G1 X-69.863 Y-4.13
G1 X-70.111 Y-3.787
G1 X-70.342 Y-3.429
G1 X-70.555 Y-3.056
G1 X-70.752 Y-2.669
G1 X-70.93 Y-2.267
G1 X-71.09 Y-1.852
G1 X-71.232 Y-1.424
G1 X-71.356 Y-0.982
G1 X-71.462 Y-0.528
G1 X-71.549 Y-0.061
G1 X-71.616 Y0.418
G1 X-71.665 Y0.908
G1 X-71.694 Y1.41
G1 X-71.704 Y1.923
G1 X-71.695 Y2.437
G1 X-71.666 Y2.944
G1 X-71.619 Y3.443
G1 X-71.554 Y3.934
G1 X-71.47 Y4.415
G1 X-71.369 Y4.887
G1 X-71.249 Y5.348
G1 X-71.112 Y5.798
G1 X-70.958 Y6.236
G1 X-70.786 Y6.663
G1 X-70.598 Y7.077
G1 X-70.393 Y7.477
G0 Z2 F300
G0 X-58.775 Y3.994 F2500
G0 Z-1 F300
G1 X-58.779 Y4.402 F2400
G1 X-58.809 Y4.831
G1 X-58.866 Y5.275
G1 X-58.953 Y5.728
G1 X-59.074 Y6.183
G1 X-59.231 Y6.632
G1 X-59.426 Y7.071
G1 X-59.663 Y7.491
G1 X-59.945 Y7.887
G1 X-60.273 Y8.251
G1 X-60.652 Y8.578
G1 X-61.083 Y8.86
G1 X-61.57 Y9.091
G1 X-61.835 Y9.185
G1 X-62.115 Y9.264
G1 X-62.41 Y9.327
G1 X-62.721 Y9.373
G1 X-63.048 Y9.401
G1 X-63.391 Y9.41
G1 X-63.702 Y9.401
G1 X-64.001 Y9.375
G1 X-64.568 Y9.272
G1 X-65.092 Y9.108
G1 X-65.575 Y8.889
G1 X-66.017 Y8.619
G1 X-66.42 Y8.305
G1 X-66.785 Y7.953
G1 X-67.112 Y7.568
G1 X-67.403 Y7.156
G1 X-67.658 Y6.722
G1 X-67.879 Y6.273
G1 X-68.066 Y5.814
G1 X-68.221 Y5.351
G1 X-68.345 Y4.89
G1 X-68.438 Y4.436
G1 X-68.502 Y3.994
G1 X-58.775
G0 Z2 F300
G0 X-51.429 Y9.654 F2500
G0 Z-1 F300
G1 Y19.932 F2400
G1 X-48.101
G1 Y-6.948
G1 X-51.429
G1 Y9.654
G0 Z2 F300
G0 X-42.496 Y19.932 F2500
G0 Z-1 F300
G1 X-39.162 F2400
G1 Y-6.948
G1 X-42.496
G1 Y19.932
G0 Z2 F300
G0 X-31.262 Y10.083 F2500
G0 Z-1 F300
G1 X-30.906 Y10.331 F2400
G1 X-30.538 Y10.56
G1 X-30.157 Y10.771
G1 X-29.765 Y10.962
G1 X-29.361 Y11.134
G1 X-28.948 Y11.287
G1 X-28.524 Y11.42
G1 X-28.091 Y11.533
G1 X-27.649 Y11.626
G1 X-27.198 Y11.698
G1 X-26.74 Y11.75
G1 X-26.274 Y11.782
G1 X-25.801 Y11.792
G1 X-25.313 Y11.781
G1 X-24.835 Y11.748
G1 X-24.367 Y11.693
G1 X-23.911 Y11.617
G1 X-23.466 Y11.52
G1 X-23.032 Y11.402
G1 X-22.611 Y11.265
G1 X-22.202 Y11.107
G1 X-21.806 Y10.93
G1 X-21.423 Y10.734
G1 X-21.053 Y10.52
G1 X-20.697 Y10.287
G1 X-20.354 Y10.036
G1 X-20.027 Y9.768
G1 X-19.714 Y9.483
G1 X-19.416 Y9.18
G1 X-19.133 Y8.862
G1 X-18.867 Y8.527
G1 X-18.616 Y8.176
G1 X-18.382 Y7.811
G1 X-18.165 Y7.43
G1 X-17.965 Y7.035
G1 X-17.782 Y6.625
G1 X-17.617 Y6.202
G1 X-17.47 Y5.766
G1 X-17.341 Y5.316
G1 X-17.232 Y4.854
G1 X-17.142 Y4.379
G1 X-17.071 Y3.892
G1 X-17.02 Y3.394
G1 X-16.989 Y2.885
G1 X-16.978 Y2.364
G1 X-16.992 Y1.74
G1 X-17.032 Y1.138
G1 X-17.098 Y0.558
G1 X-17.189 Y0.001
G1 X-17.303 Y-0.536
G1 X-17.441 Y-1.05
G1 X-17.6 Y-1.543
G1 X-17.781 Y-2.015
G1 X-17.982 Y-2.465
G1 X-18.202 Y-2.895
G1 X-18.441 Y-3.304
G1 X-18.697 Y-3.692
G1 X-18.97 Y-4.059
G1 X-19.259 Y-4.407
G1 X-19.562 Y-4.734
G1 X-19.879 Y-5.041
G1 X-20.21 Y-5.328
G1 X-20.552 Y-5.596
G1 X-20.905 Y-5.844
G1 X-21.269 Y-6.072
G1 X-21.642 Y-6.282
G1 X-22.023 Y-6.472
G1 X-22.808 Y-6.796
G1 X-23.615 Y-7.046
G1 X-24.438 Y-7.223
G1 X-25.269 Y-7.328
G1 X-26.101 Y-7.363
G1 X-26.563 Y-7.352
G1 X-27.018 Y-7.321
G1 X-27.465 Y-7.268
G1 X-27.904 Y-7.196
G1 X-28.334 Y-7.102
G1 X-28.755 Y-6.989
G1 X-29.167 Y-6.857
G1 X-29.568 Y-6.705
G1 X-29.959 Y-6.534
G1 X-30.338 Y-6.343
G1 X-30.706 Y-6.135
G1 X-31.062 Y-5.908
G1 X-31.406 Y-5.663
G1 X-31.736 Y-5.4
G1 X-32.053 Y-5.12
G1 X-32.355 Y-4.822
G1 X-32.644 Y-4.507
G1 X-32.917 Y-4.176
G1 X-33.174 Y-3.828
G1 X-33.416 Y-3.465
G1 X-33.641 Y-3.085
G1 X-33.849 Y-2.689
G1 X-34.04 Y-2.279
G1 X-34.212 Y-1.853
G1 X-34.367 Y-1.412
G1 X-34.502 Y-0.957
G1 X-34.617 Y-0.487
G1 X-34.713 Y-0.004
G1 X-34.789 Y0.493
G1 X-34.843 Y1.004
G1 X-34.876 Y1.528
G1 X-34.887 Y2.065
G1 X-34.875 Y2.632
G1 X-34.841 Y3.184
G1 X-34.784 Y3.721
G1 X-34.705 Y4.243
G1 X-34.605 Y4.749
G1 X-34.484 Y5.239
G1 X-34.342 Y5.713
G1 X-34.181 Y6.171
G1 X-34.001 Y6.613
G1 X-33.802 Y7.038
G1 X-33.585 Y7.446
G1 X-33.35 Y7.837
G1 X-33.099 Y8.211
G1 X-32.831 Y8.567
G1 X-32.546 Y8.906
G1 X-32.247 Y9.228
G1 X-31.933 Y9.531
G1 X-31.604 Y9.816
G1 X-31.262 Y10.083
G0 Z2 F300
G0 X-20.359 Y2.254 F2500
G0 Z-1 F300
G1 X-20.378 Y2.844 F2400
G1 X-20.434 Y3.447
G1 X-20.528 Y4.056
G1 X-20.663 Y4.663
G1 X-20.839 Y5.262
G1 X-21.058 Y5.845
G1 X-21.32 Y6.406
G1 X-21.627 Y6.938
G1 X-21.98 Y7.433
G1 X-22.381 Y7.885
G1 X-22.83 Y8.286
G1 X-23.329 Y8.631
G1 X-23.598 Y8.779
G1 X-23.879 Y8.911
G1 X-24.174 Y9.024
G1 X-24.482 Y9.119
G1 X-24.803 Y9.195
G1 X-25.138 Y9.25
G1 X-25.486 Y9.283
G1 X-25.849 Y9.295
G1 X-26.211 Y9.284
G1 X-26.561 Y9.253
G1 X-26.898 Y9.202
G1 X-27.223 Y9.132
G1 X-27.535 Y9.044
G1 X-27.834 Y8.937
G1 X-28.121 Y8.814
G1 X-28.396 Y8.674
G1 X-28.908 Y8.348
G1 X-29.373 Y7.964
G1 X-29.79 Y7.528
G1 X-30.16 Y7.046
G1 X-30.483 Y6.523
G1 X-30.762 Y5.964
G1 X-30.995 Y5.376
G1 X-31.185 Y4.763
G1 X-31.331 Y4.131
G1 X-31.435 Y3.485
G1 X-31.496 Y2.831
G1 X-31.517 Y2.175
G1 X-31.49 Y1.435
G1 X-31.411 Y0.721
G1 X-31.282 Y0.036
G1 X-31.105 Y-0.617
G1 X-30.882 Y-1.236
G1 X-30.615 Y-1.816
G1 X-30.305 Y-2.355
G1 X-29.956 Y-2.85
G1 X-29.568 Y-3.298
G1 X-29.144 Y-3.696
G1 X-28.686 Y-4.041
G1 X-28.196 Y-4.329
G1 X-27.676 Y-4.559
G1 X-27.127 Y-4.727
G1 X-26.553 Y-4.83
G1 X-25.954 Y-4.865
G1 X-25.354 Y-4.831
G1 X-24.779 Y-4.729
G1 X-24.229 Y-4.562
G1 X-23.706 Y-4.333
G1 X-23.214 Y-4.046
G1 X-22.753 Y-3.701
G1 X-22.327 Y-3.303
G1 X-21.936 Y-2.854
G1 X-21.583 Y-2.356
G1 X-21.271 Y-1.812
G1 X-21.001 Y-1.226
G1 X-20.776 Y-0.6
G1 X-20.597 Y0.064
G1 X-20.466 Y0.763
G1 X-20.386 Y1.494
G1 X-20.359 Y2.254
G0 Z2 F300
G0 X-3.74 Y0.558 F2500
G0 Z-1 F300
G1 X-8.313 Y18.57 F2400
G1 X-4.827
G1 X-1.798 Y5.672
G1 X-1.247 Y3.308
G1 X-0.987 Y2.143
G1 X-0.739 Y1
G1 X-0.506 Y-0.11
G1 X-0.288 Y-1.178
G1 X-0.087 Y-2.195
G1 X0.095 Y-3.151
G1 X0.147
G1 X0.32 Y-2.178
G1 X0.526 Y-1.161
G1 X0.761 Y-0.102
G1 X1.021 Y0.995
G1 X1.304 Y2.127
G1 X1.605 Y3.292
G1 X1.922 Y4.487
G1 X2.251 Y5.709
G1 X5.658 Y18.58
G1 X9.086
G1 X12.188 Y5.635
G1 X12.717 Y3.369
G1 X13.206 Y1.134
G1 X13.428 Y0.038
G1 X13.632 Y-1.038
G1 X13.814 Y-2.09
G1 X13.971 Y-3.114
G1 X14.044
G1 X14.473 Y-1.001
G1 X14.712 Y0.07
G1 X14.965 Y1.155
G1 X15.23 Y2.258
G1 X15.507 Y3.382
G1 X15.794 Y4.531
G1 X16.09 Y5.709
G1 X19.46 Y18.58
G1 X22.825
G1 X15.616 Y-6.948
G1 X12.172
G1 X8.955 Y6.34
G1 X8.548 Y7.991
G1 X8.178 Y9.651
G1 X7.845 Y11.318
G1 X7.548 Y12.993
G1 X7.288 Y14.674
G1 X7.214
G1 X6.891 Y12.991
G1 X6.532 Y11.315
G1 X6.137 Y9.648
G1 X5.707 Y7.989
G1 X5.242 Y6.34
G1 X1.609 Y-6.948
G1 X-1.835
G1 X-3.74 Y0.558
G0 Z2 F300
G0 X24.227 Y6.613 F2500
G0 Z-1 F300
G1 X24.426 Y7.038 F2400
G1 X24.643 Y7.446
G1 X24.878 Y7.837
G1 X25.129 Y8.211
G1 X25.397 Y8.567
G1 X25.681 Y8.906
G1 X25.981 Y9.228
G1 X26.295 Y9.531
G1 X26.624 Y9.816
G1 X26.966 Y10.083
G1 X27.322 Y10.331
G1 X27.69 Y10.56
G1 X28.071 Y10.771
G1 X28.463 Y10.962
G1 X28.866 Y11.134
G1 X29.28 Y11.287
G1 X29.704 Y11.42
G1 X30.137 Y11.533
G1 X30.579 Y11.626
G1 X31.03 Y11.698
G1 X31.488 Y11.75
G1 X31.954 Y11.782
G1 X32.426 Y11.792
G1 X32.915 Y11.781
G1 X33.393 Y11.748
G1 X33.86 Y11.693
G1 X34.317 Y11.617
G1 X34.762 Y11.52
G1 X35.195 Y11.402
G1 X35.616 Y11.265
G1 X36.025 Y11.107
G1 X36.421 Y10.93
G1 X36.804 Y10.734
G1 X37.174 Y10.52
G1 X37.529 Y10.287
G1 X37.871 Y10.036
G1 X38.199 Y9.768
G1 X38.512 Y9.483
G1 X38.809 Y9.18
G1 X39.091 Y8.862
G1 X39.358 Y8.527
G1 X39.608 Y8.176
G1 X39.842 Y7.811
G1 X40.059 Y7.43
G1 X40.259 Y7.035
G1 X40.442 Y6.625
G1 X40.607 Y6.202
G1 X40.753 Y5.766
G1 X40.882 Y5.316
G1 X40.991 Y4.854
G1 X41.081 Y4.379
G1 X41.152 Y3.892
G1 X41.203 Y3.394
G1 X41.234 Y2.885
G1 X41.244 Y2.364
G1 X41.231 Y1.74
G1 X41.191 Y1.138
G1 X41.125 Y0.558
G1 X41.034 Y0.001
G1 X40.92 Y-0.536
G1 X40.782 Y-1.05
G1 X40.623 Y-1.543
G1 X40.442 Y-2.015
G1 X40.241 Y-2.465
G1 X40.021 Y-2.895
G1 X39.783 Y-3.304
G1 X39.527 Y-3.692
G1 X39.254 Y-4.059
G1 X38.965 Y-4.407
G1 X38.662 Y-4.734
G1 X38.345 Y-5.041
G1 X38.015 Y-5.328
G1 X37.673 Y-5.596
G1 X37.32 Y-5.844
G1 X36.956 Y-6.072
G1 X36.583 Y-6.282
G1 X36.202 Y-6.472
G1 X35.417 Y-6.796
G1 X34.609 Y-7.046
G1 X33.786 Y-7.223
G1 X32.954 Y-7.328
G1 X32.122 Y-7.363
G1 X31.66 Y-7.352
G1 X31.206 Y-7.321
G1 X30.759 Y-7.268
G1 X30.321 Y-7.196
G1 X29.891 Y-7.102
G1 X29.47 Y-6.989
G1 X29.059 Y-6.857
G1 X28.658 Y-6.705
G1 X28.267 Y-6.534
G1 X27.888 Y-6.343
G1 X27.52 Y-6.135
G1 X27.164 Y-5.908
G1 X26.821 Y-5.663
G1 X26.491 Y-5.4
G1 X26.174 Y-5.12
G1 X25.872 Y-4.822
G1 X25.584 Y-4.507
G1 X25.311 Y-4.176
G1 X25.053 Y-3.828
G1 X24.812 Y-3.465
G1 X24.587 Y-3.085
G1 X24.378 Y-2.689
G1 X24.188 Y-2.279
G1 X24.015 Y-1.853
G1 X23.861 Y-1.412
G1 X23.726 Y-0.957
G1 X23.61 Y-0.487
G1 X23.514 Y-0.004
G1 X23.439 Y0.493
G1 X23.385 Y1.004
G1 X23.352 Y1.528
G1 X23.341 Y2.065
G1 X23.352 Y2.632
G1 X23.387 Y3.184
G1 X23.444 Y3.721
G1 X23.523 Y4.243
G1 X23.623 Y4.749
G1 X23.744 Y5.239
G1 X23.886 Y5.713
G1 X24.047 Y6.171
G1 X24.227 Y6.613
G0 Z2 F300
G0 X32.348 Y9.295 F2500
G0 Z-1 F300
G1 X31.985 Y9.284 F2400
G1 X31.635 Y9.253
G1 X31.299 Y9.202
G1 X30.975 Y9.132
G1 X30.663 Y9.044
G1 X30.365 Y8.937
G1 X30.078 Y8.814
G1 X29.805 Y8.674
G1 X29.294 Y8.348
G1 X28.832 Y7.964
G1 X28.417 Y7.528
G1 X28.05 Y7.046
G1 X27.729 Y6.523
G1 X27.452 Y5.964
G1 X27.221 Y5.376
G1 X27.034 Y4.763
G1 X26.889 Y4.131
G1 X26.787 Y3.485
G1 X26.726 Y2.831
G1 X26.706 Y2.175
G1 X26.733 Y1.435
G1 X26.812 Y0.721
G1 X26.941 Y0.036
G1 X27.118 Y-0.617
G1 X27.342 Y-1.236
G1 X27.609 Y-1.816
G1 X27.919 Y-2.355
G1 X28.269 Y-2.85
G1 X28.658 Y-3.298
G1 X29.082 Y-3.696
G1 X29.54 Y-4.041
G1 X30.031 Y-4.329
G1 X30.552 Y-4.559
G1 X31.1 Y-4.727
G1 X31.675 Y-4.83
G1 X32.274 Y-4.865
G1 X32.873 Y-4.831
G1 X33.448 Y-4.729
G1 X33.996 Y-4.562
G1 X34.516 Y-4.333
G1 X35.007 Y-4.046
G1 X35.465 Y-3.701
G1 X35.888 Y-3.303
G1 X36.276 Y-2.854
G1 X36.626 Y-2.356
G1 X36.935 Y-1.812
G1 X37.202 Y-1.226
G1 X37.426 Y-0.6
G1 X37.603 Y0.064
G1 X37.731 Y0.763
G1 X37.81 Y1.494
G1 X37.837 Y2.254
G1 X37.819 Y2.844
G1 X37.763 Y3.447
G1 X37.668 Y4.056
G1 X37.533 Y4.663
G1 X37.357 Y5.262
G1 X37.139 Y5.845
G1 X36.876 Y6.406
G1 X36.569 Y6.938
G1 X36.216 Y7.433
G1 X35.815 Y7.885
G1 X35.366 Y8.286
G1 X34.867 Y8.631
G1 X34.598 Y8.779
G1 X34.317 Y8.911
G1 X34.022 Y9.024
G1 X33.714 Y9.119
G1 X33.393 Y9.195
G1 X33.058 Y9.25
G1 X32.71 Y9.283
G1 X32.348 Y9.295
G0 Z2 F300
G0 X45.445 Y2.517 F2500
G0 Z-1 F300
G1 Y5.672 F2400
G1 X45.444 Y6.466
G1 X45.438 Y7.235
G1 X45.428 Y7.978
G1 X45.413 Y8.699
G1 X45.393 Y9.399
G1 X45.368 Y10.079
G1 X45.298 Y11.387
G1 X48.211
G1 X48.327 Y7.791
G1 X48.474
G1 X48.644 Y8.241
G1 X48.841 Y8.67
G1 X49.061 Y9.075
G1 X49.305 Y9.456
G1 X49.571 Y9.812
G1 X49.858 Y10.142
G1 X50.163 Y10.444
G1 X50.487 Y10.719
G1 X50.826 Y10.966
G1 X51.181 Y11.182
G1 X51.549 Y11.368
G1 X51.93 Y11.522
G1 X52.322 Y11.643
G1 X52.723 Y11.731
G1 X53.132 Y11.785
G1 X53.548 Y11.803
G1 X53.867 Y11.793
G1 X54.183 Y11.756
G1 X54.495 Y11.692
G1 Y8.537
G1 X54.119 Y8.604
G1 X53.74 Y8.643
G1 X53.359 Y8.653
G1 X52.927 Y8.632
G1 X52.512 Y8.572
G1 X52.115 Y8.472
G1 X51.736 Y8.336
G1 X51.375 Y8.163
G1 X51.035 Y7.957
G1 X50.715 Y7.719
G1 X50.417 Y7.45
G1 X50.141 Y7.151
G1 X49.888 Y6.825
G1 X49.658 Y6.472
G1 X49.453 Y6.095
G1 X49.274 Y5.695
G1 X49.12 Y5.274
G1 X48.994 Y4.833
G1 X48.895 Y4.373
G1 X48.814 Y3.859
G1 X48.763 Y3.342
G1 X48.742 Y2.822
G1 Y-6.948
G1 X45.445
G1 Y2.517
G0 Z2 F300
G0 X57.986 Y11.235 F2500
G0 Z-1 F300
G1 Y19.932 F2400
G1 X61.314
G1 Y-6.948
G1 X57.986
G1 Y11.235
G0 Z2 F300
G0 X68.907 Y10.03 F2500
G0 Z-1 F300
G1 X69.231 Y10.285 F2400
G1 X69.566 Y10.52
G1 X69.911 Y10.737
G1 X70.266 Y10.934
G1 X70.63 Y11.111
G1 X71.002 Y11.269
G1 X71.383 Y11.406
G1 X71.771 Y11.523
G1 X72.166 Y11.619
G1 X72.567 Y11.694
G1 X72.974 Y11.749
G1 X73.386 Y11.781
G1 X73.802 Y11.792
G1 X74.317 Y11.777
G1 X74.81 Y11.732
G1 X75.282 Y11.66
G1 X75.731 Y11.562
G1 X76.159 Y11.44
G1 X76.563 Y11.295
G1 X76.946 Y11.13
G1 X77.305 Y10.945
G1 X77.641 Y10.743
G1 X77.954 Y10.526
G1 X78.243 Y10.294
G1 X78.509 Y10.051
G1 X78.75 Y9.797
G1 X78.967 Y9.534
G1 X79.16 Y9.265
G1 X79.328 Y8.99
G1 X79.407
G1 Y19.932
G1 X82.741
G1 Y-2.215
G1 X82.773 Y-4.723
G1 X82.793 Y-5.33
G1 X82.819 Y-5.909
G1 X82.85 Y-6.452
G1 X82.888 Y-6.948
G1 X79.902
G1 X79.749 Y-3.766
G1 X79.67
G1 X79.465 Y-4.144
G1 X79.232 Y-4.508
G1 X78.971 Y-4.858
G1 X78.685 Y-5.191
G1 X78.372 Y-5.507
G1 X78.034 Y-5.803
G1 X77.672 Y-6.079
G1 X77.286 Y-6.332
G1 X76.877 Y-6.561
G1 X76.446 Y-6.764
G1 X75.993 Y-6.941
G1 X75.518 Y-7.089
G1 X75.024 Y-7.206
G1 X74.509 Y-7.292
G1 X73.976 Y-7.345
G1 X73.424 Y-7.363
G1 X73.012 Y-7.352
G1 X72.606 Y-7.319
G1 X72.207 Y-7.266
G1 X71.816 Y-7.191
G1 X71.432 Y-7.096
G1 X71.057 Y-6.98
G1 X70.69 Y-6.845
G1 X70.332 Y-6.69
G1 X69.983 Y-6.516
G1 X69.645 Y-6.324
G1 X69.317 Y-6.113
G1 X68.999 Y-5.883
G1 X68.693 Y-5.636
G1 X68.398 Y-5.372
G1 X68.116 Y-5.091
G1 X67.846 Y-4.793
G1 X67.589 Y-4.479
G1 X67.346 Y-4.149
G1 X67.116 Y-3.803
G1 X66.901 Y-3.442
G1 X66.7 Y-3.066
G1 X66.515 Y-2.676
G1 X66.345 Y-2.271
G1 X66.191 Y-1.853
G1 X66.053 Y-1.421
G1 X65.933 Y-0.976
G1 X65.83 Y-0.518
G1 X65.744 Y-0.048
G1 X65.677 Y0.434
G1 X65.629 Y0.928
G1 X65.599 Y1.433
G1 X65.589 Y1.949
G1 X65.596 Y2.513
G1 X65.625 Y3.064
G1 X65.676 Y3.6
G1 X65.747 Y4.122
G1 X65.838 Y4.629
G1 X65.949 Y5.12
G1 X66.079 Y5.597
G1 X66.227 Y6.058
G1 X66.393 Y6.503
G1 X66.576 Y6.932
G1 X66.776 Y7.345
G1 X66.992 Y7.742
G1 X67.224 Y8.121
G1 X67.47 Y8.483
G1 X67.731 Y8.828
G1 X68.006 Y9.156
G1 X68.294 Y9.465
G1 X68.594 Y9.757
G1 X68.907 Y10.03
G0 Z2 F300
G0 X73.819 Y9.144 F2500
G0 Z-1 F300
G1 X74.449 Y9.179 F2400
G1 X74.865 Y9.163
G1 X75.278 Y9.111
G1 X75.686 Y9.025
G1 X76.085 Y8.904
G1 X76.471 Y8.75
G1 X76.844 Y8.563
G1 X77.199 Y8.346
G1 X77.535 Y8.099
G1 X77.848 Y7.825
G1 X78.137 Y7.525
G1 X78.399 Y7.202
G1 X78.633 Y6.857
G1 X78.837 Y6.494
G1 X79.01 Y6.115
G1 X79.149 Y5.722
G1 X79.255 Y5.319
G1 X79.344 Y4.858
G1 X79.395 Y4.391
G1 X79.407 Y3.921
G1 Y0.74
G1 X79.404 Y0.377
G1 X79.377 Y0.015
G1 X79.327 Y-0.345
G1 X79.255 Y-0.701
G1 X79.149 Y-1.113
G1 X79.009 Y-1.515
G1 X78.836 Y-1.903
G1 X78.629 Y-2.276
G1 X78.393 Y-2.629
G1 X78.127 Y-2.961
G1 X77.833 Y-3.269
G1 X77.515 Y-3.552
G1 X77.174 Y-3.806
G1 X76.812 Y-4.031
G1 X76.433 Y-4.224
G1 X76.039 Y-4.384
G1 X75.633 Y-4.51
G1 X75.217 Y-4.601
G1 X74.795 Y-4.657
G1 X74.37 Y-4.676
G1 X74.038 Y-4.667
G1 X73.717 Y-4.641
G1 X73.105 Y-4.537
G1 X72.535 Y-4.369
G1 X72.007 Y-4.139
G1 X71.521 Y-3.852
G1 X71.078 Y-3.51
G1 X70.676 Y-3.118
G1 X70.316 Y-2.679
G1 X69.999 Y-2.197
G1 X69.723 Y-1.674
G1 X69.49 Y-1.115
G1 X69.299 Y-0.524
G1 X69.151 Y0.098
G1 X69.045 Y0.745
G1 X68.981 Y1.414
G1 X68.96 Y2.102
G1 X68.983 Y2.848
G1 X69.054 Y3.568
G1 X69.171 Y4.258
G1 X69.332 Y4.915
G1 X69.538 Y5.537
G1 X69.787 Y6.12
G1 X70.078 Y6.662
G1 X70.411 Y7.158
G1 X70.784 Y7.608
G1 X71.196 Y8.007
G1 X71.647 Y8.353
G1 X72.136 Y8.642
G1 X72.661 Y8.873
G1 X73.223 Y9.041
G1 X73.819 Y9.144
G0 Z2 F300

M400
M107          ;Laser/Fan OFF
G0 F2500
M84           ;Motors OFF
M117 Finished :)
